X: 09252
M: 6/8
L: 1/8
K: D
V: 1 clef=treble middle=B
d2d dcd | a2a age | d2d dcd | e2c ABc |\
d2d dcd | a2a age | d3 {f}ede | d3- d2 :|
|: F/G/ |\
V: 2 clef=bass middle=d
z |\
dfa dfa | cea cea | dfa Be^g | Ace a2z |\
dfa dfa | cea cea | dfa Aea | dfa d2 :|
|: z |\
fad' fad' | gbd' gbd' | ac'e' ac'e' | dfa d2 :|

